X:1
T:Chi brama di veder
T:Gemignano Capi Lupi da Modona
T:Source ; Canzonette a tre voci di H.Vecchi et di G.Capi Lupi da Modona---Venetia---Ang.Gardano---1597. Editor : André Vierendeels : (11/02/17).
T:Notes : Original clefs : C1, C1, F4 Lute accompaniment not included in this edition
T:Chi brama di veder
T:©
T:©
C:Gemignano Capi Lupi da Modona
Z:©
%%score [ 1 2 3 ]
L:1/8
Q:1/4=123
M:4/4
K:F
V:1 treble nm="Soprano 1" snm="S 1"
V:2 treble nm="Soprano 2" snm="S 2"
V:3 bass nm="Bass" snm="B"
V:1
"^1)" z2 d2 d4- | d2 d2 d2 e2 | c4 z2 c2- | cc B2 A2 GF | E4 D4 :: z2 B2 c2 c2 | d4 d4- | %7
w: Chi bra-|* ma di ve-|der quan-|* to puo'a- mo- * *|* re,|veng' a mi-|rar que-|
w: E que-|* sti fiu- mi|ha poi|_ con- ver- s'in fiam- *|* me,|O gran po-|ter d'A-|
 d4 c2 B2 | c2 d2 _e4- | e2 d2 c4 | B2 d2 d2 d2 | d2 d2 d2 cB | A2 A2 A2 GF | E2 E2 G3 A | %14
w: * sti do-|len- ti lu-||mi, ch'e- gli hà|con- vers' in ri- *|* v'e'n fon- * *|* t'e'n fiu- *|
w: * mor, d'un|chiu- so lo-||co, far sor- ger|ac- qua'e d'ac- qua _|_ poi far _ _|_ fo- * *|
 B2 c2 d2 cB | A2 G2 A4 | G8 :| %17
w: ||mi.|
w: ||co.|
V:2
"^2)""^1)" z2 =B2 B4- | B2 =B2 B2 c2 | A4 z2 A2 | G3 F E2 D2- | D2 ^C2 D4 :: z2 D2 A2 G2 | %6
w: Chi bra-|* ma di ve-|der quan-|to _ _ puo'a-|* mo- re,|veng' a mi-|
w: E que-|* sto fo- co|s'è rin-|chiu- * * so'al|pet- * to,|mi- se- ro|
 ^F4 =F4 | F4 G4 | A4 B4 | A2 B4 A2 | B4 z2 F2 | F2 F2 F2 F2 | F2 ED C2 c2 | c2 BA G2 G2 | %14
w: rar que-|sti do-|len- ti|lu- * *|mi, ch'e-|gli hà con- vers'|in ri- * * v'e'n|fon- * * * t'e'n|
w: pet- to|hor sei|for- na-|ce'ar- den- *|te, hor|su ve- de- te'A-|mor _ _ _ quan-|to'e _ _ _ pos-|
 G2 FE D2 E2 | ^F2 G4 F2 | G8 :| %17
w: fiu- * * * *||mi.|
w: sen- * * * *||te.|
V:3
"^3)""^1)""^4)" z2 G,2 G,4- | G,2 G,2 G,2 C,2 | F,6 F,2 | C2 G,2 A,4- | A,4 D,4 :: %5
w: Chi bra-|* ma di ve-|der quan-|to puo'a- mo-|* re,|
w: Tan- to'e|_ pos- sen- te'A-|mor, tan-|to'ha vi- go-|* re,|
 z2 G,2 F,2 _E,2 | D,4 B,4- | B,4 A,2 G,2 | F,4 _E,4 | F,8 | B,,2 B,2 B,2 B,2 | B,2 B,2 B,2 A,G, | %12
w: veng' a mi-|rar que-|* sti do-|len- ti|lu-|mi, ch'e- gli hà|con- vers' in ri- *|
w: ch'è ver quel|ch'io non|_ cre- do'e'l|pro- vo|spet-|to, che per a-|mar al- trui o- *|
 F,2 F,2 F,2 E,D, | C,2 C,2 C,2 B,,A,, | G,,2 A,,2 B,,2 C,2 | D,8 | G,,8 :| %17
w: * v'e'n fon- * *|* t'e'n fiu- * *|||mi.|
w: * di- o _ _|_ me stes- * *|||so.|

